src/images/icons/password_icon.svg

<svg width="18" height="18" viewBox="0 0 18 18" fill="none" xmlns="http://www.w3.org/2000/svg">
<path d="M11.7938 10.1437L10.9688 9.31875C11.2937 8.43125 11.125 7.69375 10.4625 7.10625C9.8 6.51875 9.08125 6.36875 8.30625 6.65625L7.48125 5.83125C7.69375 5.69375 7.93125 5.59375 8.19375 5.53125C8.45625 5.46875 8.725 5.4375 9 5.4375C9.8875 5.4375 10.6406 5.74688 11.2594 6.36563C11.8781 6.98438 12.1875 7.7375 12.1875 8.625C12.1875 8.9 12.1531 9.17187 12.0844 9.44062C12.0156 9.70937 11.9188 9.94375 11.7938 10.1437ZM14.2125 12.5625L13.4625 11.8125C14.075 11.3625 14.6094 10.8594 15.0656 10.3031C15.5219 9.74688 15.8562 9.1875 16.0687 8.625C15.4437 7.2375 14.5062 6.14062 13.2562 5.33438C12.0062 4.52813 10.65 4.125 9.1875 4.125C8.6625 4.125 8.125 4.175 7.575 4.275C7.025 4.375 6.59375 4.49375 6.28125 4.63125L5.41875 3.75C5.85625 3.55 6.41562 3.375 7.09687 3.225C7.77812 3.075 8.44375 3 9.09375 3C10.8813 3 12.5156 3.50937 13.9969 4.52812C15.4781 5.54688 16.5625 6.9125 17.25 8.625C16.925 9.425 16.5063 10.1562 15.9938 10.8188C15.4813 11.4812 14.8875 12.0625 14.2125 12.5625ZM15.3 16.8L12.15 13.7062C11.7125 13.8812 11.2188 14.0156 10.6688 14.1094C10.1188 14.2031 9.5625 14.25 9 14.25C7.175 14.25 5.51875 13.7406 4.03125 12.7219C2.54375 11.7031 1.45 10.3375 0.75 8.625C1 7.975 1.34688 7.34062 1.79063 6.72187C2.23438 6.10312 2.775 5.5125 3.4125 4.95L1.05 2.5875L1.8375 1.78125L16.0312 15.975L15.3 16.8ZM4.18125 5.7375C3.71875 6.075 3.27187 6.51875 2.84062 7.06875C2.40937 7.61875 2.1 8.1375 1.9125 8.625C2.55 10.0125 3.50937 11.1094 4.79062 11.9156C6.07188 12.7219 7.525 13.125 9.15 13.125C9.5625 13.125 9.96875 13.1 10.3687 13.05C10.7688 13 11.0687 12.925 11.2687 12.825L10.0688 11.625C9.93125 11.6875 9.7625 11.7344 9.5625 11.7656C9.3625 11.7969 9.175 11.8125 9 11.8125C8.125 11.8125 7.375 11.5062 6.75 10.8937C6.125 10.2812 5.8125 9.525 5.8125 8.625C5.8125 8.4375 5.82812 8.25 5.85938 8.0625C5.89062 7.875 5.9375 7.70625 6 7.55625L4.18125 5.7375Z" fill="#3B3B3B"/>
</svg>

<svg width="18" height="18" fill="none" xmlns="http://www.w3.org/2000/svg"><path d="m11.794 10.144-.825-.825c.325-.888.156-1.625-.506-2.213-.663-.587-1.382-.737-2.157-.45l-.825-.825c.213-.137.45-.237.713-.3.262-.062.531-.093.806-.093.887 0 1.64.309 2.26.928.618.618.928 1.372.928 2.259 0 .275-.035.547-.104.816a2.477 2.477 0 0 1-.29.703Zm2.418 2.418-.75-.75a8.79 8.79 0 0 0 1.604-1.509c.456-.556.79-1.116 1.003-1.678-.625-1.388-1.563-2.484-2.813-3.29a7.362 7.362 0 0 0-4.069-1.21c-.524 0-1.062.05-1.612.15-.55.1-.981.219-1.294.356L5.42 3.75c.437-.2.997-.375 1.678-.525A9.272 9.272 0 0 1 9.094 3c1.787 0 3.422.51 4.903 1.528 1.481 1.019 2.566 2.385 3.253 4.097a9.265 9.265 0 0 1-1.256 2.194 9.059 9.059 0 0 1-1.781 1.743ZM15.3 16.8l-3.15-3.094c-.438.175-.931.31-1.481.403A9.92 9.92 0 0 1 9 14.25c-1.825 0-3.481-.51-4.969-1.528C2.544 11.703 1.45 10.338.75 8.625c.25-.65.597-1.284 1.04-1.903.444-.619.985-1.21 1.623-1.772L1.05 2.587l.787-.806 14.194 14.194-.731.825ZM4.181 5.737c-.462.338-.91.782-1.34 1.332-.432.55-.741 1.068-.929 1.556a7.508 7.508 0 0 0 2.879 3.29c1.28.807 2.734 1.21 4.359 1.21.412 0 .819-.025 1.219-.075.4-.05.7-.125.9-.225l-1.2-1.2c-.138.063-.307.11-.507.14-.2.032-.387.047-.562.047a3.1 3.1 0 0 1-2.25-.918c-.625-.613-.938-1.369-.938-2.269 0-.188.016-.375.047-.563.032-.187.079-.356.141-.506L4.181 5.737Z" fill="#3B3B3B"/></svg>
